X:1
T:Balkan -- Hornpipe
Z:Bob Puckette <bpuckette:msn.com> 2003-3-10
R:hornpipe
C:Hayes
B:Cole's 1000 Fiddle Tunes
M:2/4
L:1/16
K:D
uA2|.d2(fd) ceAc|dAfd egce|.d2(fd) ceAg|fdec d2A2|
.d2(fd) ceAc|dAfd egce|.d2(fd) ceAg|fdec d2:|
|:vAG|FDAF dABG|FDAF EcAG|FDAF dABG|FDEC .D2(AG)|
FDAF dABG|FDAF EcAG|FDAF dAAg|fdec d2:|
